apps/tokenlist/data/4217/icons/0x20c0000000000000000000005c0bac7cef389a11.svg

<svg xmlns="http://www.w3.org/2000/svg" width="1024" height="1024" fill="none" viewBox="0 0 1024 1024"><path fill="#3f79ff" d="M512 0c282.77 0 512 229.23 512 512s-229.231 512-512 512S0 794.77 0 512 229.23 0 512 0m55.697 94.262c-30.761-30.76-80.633-30.76-111.394 0L94.262 456.303c-30.76 30.761-30.76 80.633 0 111.394l362.041 362.041c30.761 30.759 80.633 30.76 111.394 0l362.041-362.041c30.76-30.761 30.759-80.633 0-111.394z"/><path fill="#3f79ff" d="M560.62 256.32q29.982 7.47 55.37 24.129 46.742 29.484 72.629 82.697l-83.415 48.18q-30.203-64.72-96.36-64.72-30.921 0-48.899 14.382-17.258 13.664-17.258 35.955 0 23.731 19.416 38.832 20.135 14.382 76.224 31.641 23.011 7.191 34.517 11.505 12.225 3.596 32.36 12.225 20.853 7.91 31.64 15.101 11.505 7.191 25.887 19.416t21.574 25.168q7.91 12.943 12.944 31.641 5.752 17.977 5.752 39.55 0 69.753-51.056 110.742-37.212 30.3-91.325 38.2V832h-93.483v-62.988q-40.898-7.781-72.63-28.338-51.056-33.798-71.91-91.325l84.854-49.619q29.484 76.944 115.776 76.944 41.707 0 61.123-15.101 19.415-15.1 19.416-38.112 0-26.607-23.731-40.989-23.73-15.101-84.853-32.36-33.798-10.067-57.529-20.134-23.012-10.068-46.742-26.607-23.01-17.259-35.235-43.146-12.225-25.889-12.225-60.405 0-68.314 48.18-108.584 33.261-27.879 75.506-36.795V192h93.483z"/></svg>

<svg width="1024" height="1024" viewBox="0 0 1024 1024" fill="none" xmlns="http://www.w3.org/2000/svg">
<path d="M512 0C794.77 0.000248667 1024 229.23 1024 512C1024 794.769 794.769 1024 512 1024C229.23 1024 0.000233503 794.77 0 512C0 229.23 229.23 0 512 0ZM567.697 94.262C536.936 63.5022 487.064 63.5022 456.303 94.262L94.262 456.303C63.5022 487.064 63.5022 536.936 94.262 567.697L456.303 929.738C487.064 960.497 536.936 960.498 567.697 929.738L929.738 567.697C960.498 536.936 960.497 487.064 929.738 456.303L567.697 94.262Z" fill="#3F79FF"/>
<path d="M560.62 256.32C580.608 261.3 599.065 269.342 615.99 280.449C647.151 300.105 671.361 327.671 688.619 363.146L605.204 411.326C585.069 368.18 552.949 346.606 508.844 346.606C488.23 346.607 471.93 351.4 459.945 360.988C448.44 370.097 442.687 382.082 442.687 396.943C442.687 412.764 449.159 425.708 462.103 435.775C475.526 445.363 500.934 455.91 538.327 467.416C553.668 472.21 565.173 476.045 572.844 478.921C580.994 481.318 591.781 485.394 605.204 491.146C619.106 496.42 629.653 501.453 636.844 506.247C644.514 511.041 653.143 517.513 662.731 525.663C672.319 533.813 679.511 542.202 684.305 550.831C689.578 559.46 693.893 570.007 697.249 582.472C701.084 594.457 703.001 607.64 703.001 622.022C703.001 668.524 685.983 705.438 651.945 732.764C627.137 752.965 596.695 765.697 560.62 770.964V832H467.137V769.012C439.872 763.824 415.661 754.379 394.507 740.674C360.47 718.142 336.499 687.7 322.597 649.349L407.451 599.73C427.107 651.026 465.699 676.674 523.227 676.674C551.031 676.674 571.406 671.641 584.35 661.573C597.293 651.506 603.766 638.802 603.766 623.461C603.766 605.723 595.855 592.06 580.035 582.472C564.215 572.404 535.93 561.618 495.182 550.112C472.65 543.401 453.474 536.689 437.653 529.978C422.312 523.266 406.731 514.397 390.911 503.371C375.57 491.865 363.826 477.483 355.676 460.225C347.526 442.966 343.451 422.831 343.451 399.82C343.451 354.277 359.511 318.083 391.631 291.236C413.805 272.649 438.974 260.386 467.137 254.441V192H560.62V256.32Z" fill="#3F79FF"/>
</svg>
